public/avatar/item0/71.svg

<svg xmlns:xlink="http://www.w3.org/1999/xlink" height="58.65" width="49.15" xmlns="http://www.w3.org/2000/svg"><use height="15.6" transform="translate(5 22.2)" width="33.9" xlink:href="#a"/><defs><g id="a" fill-rule="evenodd"><path d="M7.15 5.3q5.4.85 6.9 2.25.75.75.75 1.6.15 5.05-.7 7.05-1.25 2.7-5.4 3.4-3.9.65-7.75-3.35l-1.05-1-1.1 1q-3.8 3.9-7.65 3.35-3.65-.5-5-2.75-1.1-1.8-1.1-5.7v-2q.1-.95.8-1.6 1.55-1.4 6.9-2.25l7.15-.6 7.25.6" transform="translate(19.1 -4.1)"/><path d="M7 5.7q5.3.85 6.75 2.2.55.5.65 1.25.2 4.9-.65 6.75-1.15 2.6-5.1 3.3-3.7.6-7.4-3.25L-.1 14.8l-1.4 1.15q-3.65 3.75-7.25 3.25-3.9-.55-5.05-3.2-.85-1.9-.7-6.85 0-.7.65-1.25 1.45-1.35 6.7-2.2l7.05-.55L7 5.7" fill="#fdc42f" transform="translate(19.1 -4.1)"/><path d="M7.9 6.7q5.6 1.05 5.65 2.5.15 4.8-.65 6.5-1 2.1-4.4 2.65-2.9.45-5.55-1.9-2.75-2.5-3.05-2.5l-3.05 2.45q-2.6 2.35-5.5 1.95-3.4-.5-4.35-2.6-.8-1.75-.65-6.55.05-1.45 5.6-2.5L-.1 6l8 .7" fill="#212321" transform="translate(19.1 -4.1)"/><path d="m-4.45 18.85-.35-.3q1.5-.75 3.25-2.6l.95-.9.3.35-.95.85q-1.6 1.7-3.2 2.6M-6.4 5.6q-4.05.55-6.1 1.45l-.1-.4q2.3-.95 6.05-1.45l.15.4" fill="#212321" transform="translate(19.1 -4.1)"/><path d="m-12.2 7.8-.3-.75q2.05-.9 6.1-1.45l.35.8q-3.95.5-6.15 1.4m6.75 10.1q1.2-.5 2.5-1.7l1.8-1.75.55.6-.95.9q-1.75 1.85-3.25 2.6l-.65-.65" fill="#fdff2f" transform="translate(19.1 -4.1)"/><path d="M-12.2 7.8q2.2-.9 6.15-1.4 1.95 4.55 4.9 8.05l-1.8 1.75q-1.3 1.2-2.5 1.7-4.4-4.15-6.75-10.1" fill="#6f6f6f" transform="translate(19.1 -4.1)"/><path d="M4 18.3q1.6.95 3.4 1l.3.4-2.75-.45L4 18.3M.9 4.7l.05.45H-.1l-2.9.1-.1-.45 3-.1h1" fill="#212321" transform="translate(19.1 -4.1)"/><path d="m.95 5.15.2.85H-.1l-2.7.05-.2-.8 2.9-.1H.95m.1 9.4 2.3 2.25q1.7 1.4 3.45 1.6l.6.9q-1.8-.05-3.4-1-1.8-1.85-2.95-3.75" fill="#fdff2f" transform="translate(19.1 -4.1)"/><path d="M1.15 6q1.1 5.15 5.65 12.4-1.75-.2-3.45-1.6l-2.3-2.25q-2.4-3.7-3.85-8.5L-.1 6h1.25" fill="#3f4447" transform="translate(19.1 -4.1)"/><path d="m-12.95 9.8.6-.3.5.1q.1.25.05.8l.4.4-.8-.15q.15.8-.05.85l-.7-1.7" fill="#fdff2f" transform="translate(19.1 -4.1)"/><path d="m-11.25 9.7.3-.15.3-.2.2.3.05.4-.15-.2q-.05.45-.35.6-.8.25-.35-.75m.75-.5.55.05q-.4-1.25.3-.55 0 1.6-.3 1.55 0-.7-.2-.8l-.35-.25m1.1-1.5q.3-.1.8.6.3-.05.3.5l-.7.4-.4-1.5" fill="#fdff2f" transform="translate(19.1 -4.1)"/><path d="M-8.1 8.05q.4-.35.55.1.15.5-.2.6-.3.1-.45-.2-.15-.25.1-.5m.85.3-.15-.6q.2-.1.3.2l.35-.4 1.15.05q.1.3-.25.4l-.85-.1-.55.45" fill="#fdff2f" transform="translate(19.1 -4.1)"/><path d="m-14.3 9.95 2.95-3.5-2.4 3.9 4.25 1.75-4.45-1.1-.35 4.6-.35-4.6-4.45 1.1 4.25-1.75-2.4-3.9 2.95 3.5" fill="#fff" transform="translate(19.1 -4.1)"/><path d="m-9.9 7.2-1.45 2.05L-10.2 7l-2.45-.8 2.55.4-.05-2.5.4 2.5 2.4-.8-2.25 1.15L-8.1 9l-1.8-1.8m-3.4 5.2-.35 2.2 2.25-.05-2.2.4.7 2.1-1-2-1.8 1.35 1.6-1.6-1.85-1.25 2 1 .65-2.15" fill="#fff" transform="translate(19.1 -4.1)"/></g></defs></svg>

<?xml version="1.0" encoding="UTF-8" standalone="no"?>
<svg xmlns:xlink="http://www.w3.org/1999/xlink" height="58.65px" width="49.15px" xmlns="http://www.w3.org/2000/svg">
  <g transform="matrix(1.0, 0.0, 0.0, 1.0, 24.1, 18.1)">
    <use height="15.6" transform="matrix(1.0, 0.0, 0.0, 1.0, -19.1, 4.1)" width="33.9" xlink:href="#shape0"/>
  </g>
  <defs>
    <g id="shape0" transform="matrix(1.0, 0.0, 0.0, 1.0, 19.1, -4.1)">
      <path d="M7.15 5.3 Q12.55 6.15 14.05 7.55 14.8 8.3 14.8 9.15 14.95 14.2 14.1 16.2 12.85 18.9 8.7 19.6 4.8 20.25 0.95 16.25 L-0.1 15.25 -1.2 16.25 Q-5.0 20.15 -8.85 19.6 -12.5 19.1 -13.85 16.85 -14.95 15.05 -14.95 11.15 L-14.95 9.15 Q-14.85 8.2 -14.15 7.55 -12.6 6.15 -7.25 5.3 L-0.1 4.7 7.15 5.3" fill="#000000" fill-rule="evenodd" stroke="none"/>
      <path d="M7.0 5.7 Q12.3 6.55 13.75 7.9 14.3 8.4 14.4 9.15 14.6 14.05 13.75 15.9 12.6 18.5 8.65 19.2 4.95 19.8 1.25 15.95 L-0.1 14.8 -1.5 15.95 Q-5.15 19.7 -8.75 19.2 -12.65 18.65 -13.8 16.0 -14.65 14.1 -14.5 9.15 -14.5 8.45 -13.85 7.9 -12.4 6.55 -7.15 5.7 L-0.1 5.15 7.0 5.7" fill="#fdc42f" fill-rule="evenodd" stroke="none"/>
      <path d="M7.9 6.7 Q13.5 7.75 13.55 9.2 13.7 14.0 12.9 15.7 11.9 17.8 8.5 18.35 5.6 18.8 2.95 16.45 0.2 13.95 -0.1 13.95 L-3.15 16.4 Q-5.75 18.75 -8.65 18.35 -12.05 17.85 -13.0 15.75 -13.8 14.0 -13.65 9.2 -13.6 7.75 -8.05 6.7 L-0.1 6.0 7.9 6.7" fill="#212321" fill-rule="evenodd" stroke="none"/>
      <path d="M-4.45 18.85 L-4.8 18.55 Q-3.3 17.8 -1.55 15.95 L-0.6 15.05 -0.3 15.4 -1.25 16.25 Q-2.85 17.95 -4.45 18.85" fill="#212321" fill-rule="evenodd" stroke="none"/>
      <path d="M-6.4 5.6 Q-10.45 6.15 -12.5 7.05 L-12.6 6.65 Q-10.3 5.7 -6.55 5.2 L-6.4 5.6" fill="#212321" fill-rule="evenodd" stroke="none"/>
      <path d="M-12.2 7.8 L-12.5 7.05 Q-10.45 6.15 -6.4 5.6 L-6.05 6.4 Q-10.0 6.9 -12.2 7.8" fill="#fdff2f" fill-rule="evenodd" stroke="none"/>
      <path d="M-5.45 17.9 Q-4.25 17.4 -2.95 16.2 L-1.15 14.45 -0.6 15.05 -1.55 15.95 Q-3.3 17.8 -4.8 18.55 L-5.45 17.9" fill="#fdff2f" fill-rule="evenodd" stroke="none"/>
      <path d="M-12.2 7.8 Q-10.0 6.9 -6.05 6.4 -4.1 10.95 -1.15 14.45 L-2.95 16.2 Q-4.25 17.4 -5.45 17.9 -9.85 13.75 -12.2 7.8" fill="#6f6f6f" fill-rule="evenodd" stroke="none"/>
      <path d="M4.0 18.3 Q5.6 19.25 7.4 19.3 L7.7 19.7 4.95 19.25 4.0 18.3" fill="#212321" fill-rule="evenodd" stroke="none"/>
      <path d="M0.9 4.7 L0.95 5.15 -0.1 5.15 -3.0 5.25 -3.1 4.8 -0.1 4.7 0.9 4.7" fill="#212321" fill-rule="evenodd" stroke="none"/>
      <path d="M0.95 5.15 L1.15 6.0 -0.1 6.0 -2.8 6.05 -3.0 5.25 -0.1 5.15 0.95 5.15" fill="#fdff2f" fill-rule="evenodd" stroke="none"/>
      <path d="M1.05 14.55 L3.35 16.8 Q5.05 18.2 6.8 18.4 L7.4 19.3 Q5.6 19.25 4.0 18.3 2.2 16.45 1.05 14.55" fill="#fdff2f" fill-rule="evenodd" stroke="none"/>
      <path d="M1.15 6.0 Q2.25 11.15 6.8 18.4 5.05 18.2 3.35 16.8 L1.05 14.55 Q-1.35 10.85 -2.8 6.05 L-0.1 6.0 1.15 6.0" fill="#3f4447" fill-rule="evenodd" stroke="none"/>
      <path d="M-12.95 9.8 L-12.35 9.5 -11.85 9.6 Q-11.75 9.85 -11.8 10.4 L-11.4 10.8 -12.2 10.65 Q-12.05 11.45 -12.25 11.5 L-12.95 9.8" fill="#fdff2f" fill-rule="evenodd" stroke="none"/>
      <path d="M-11.25 9.7 L-10.95 9.55 -10.65 9.35 -10.45 9.65 -10.4 10.05 -10.55 9.85 Q-10.6 10.3 -10.9 10.45 -11.7 10.7 -11.25 9.7" fill="#fdff2f" fill-rule="evenodd" stroke="none"/>
      <path d="M-10.5 9.2 L-9.95 9.25 Q-10.35 8.0 -9.65 8.7 -9.65 10.3 -9.95 10.25 -9.95 9.55 -10.15 9.45 L-10.5 9.2" fill="#fdff2f" fill-rule="evenodd" stroke="none"/>
      <path d="M-9.4 7.7 Q-9.1 7.6 -8.6 8.3 -8.3 8.25 -8.3 8.8 L-9.0 9.2 -9.4 7.7" fill="#fdff2f" fill-rule="evenodd" stroke="none"/>
      <path d="M-8.1 8.05 Q-7.7 7.7 -7.55 8.15 -7.4 8.65 -7.75 8.75 -8.05 8.85 -8.2 8.55 -8.35 8.3 -8.1 8.05" fill="#fdff2f" fill-rule="evenodd" stroke="none"/>
      <path d="M-7.25 8.35 L-7.4 7.75 Q-7.2 7.65 -7.1 7.95 L-6.75 7.55 -5.6 7.6 Q-5.5 7.9 -5.85 8.0 L-6.7 7.9 -7.25 8.35" fill="#fdff2f" fill-rule="evenodd" stroke="none"/>
      <path d="M-14.3 9.95 L-11.35 6.45 -13.75 10.35 -9.5 12.1 -13.95 11.0 -14.3 15.6 -14.65 11.0 -19.1 12.1 -14.85 10.35 -17.25 6.45 -14.3 9.95" fill="#ffffff" fill-rule="evenodd" stroke="none"/>
      <path d="M-9.9 7.2 L-11.35 9.25 -10.2 7.0 -12.65 6.2 -10.1 6.6 -10.15 4.1 -9.75 6.6 -7.35 5.8 -9.6 6.95 -8.1 9.0 -9.9 7.2" fill="#ffffff" fill-rule="evenodd" stroke="none"/>
      <path d="M-13.3 12.4 L-13.65 14.6 -11.4 14.55 -13.6 14.95 -12.9 17.05 -13.9 15.05 -15.7 16.4 -14.1 14.8 -15.95 13.55 -13.95 14.55 -13.3 12.4" fill="#ffffff" fill-rule="evenodd" stroke="none"/>
    </g>
  </defs>
</svg>
